assets/fanfou/mono.svg

<svg viewBox="0 0 24 24" xmlns="http://www.w3.org/2000/svg"><path d="m21.96.0655 1.369 2.082c-3.2662.9041-6.8623 1.5142-10.7875 1.8302v3.8061h10.1945c-.448 4.4272-1.616 7.9444-3.5041 10.5525 1.239 1.475 2.8271 2.788 4.7682 3.9381l-1.7 1.6601a25.133 25.133 0 0 1 -4.5823-3.7402 20.9459 20.9459 0 0 1 -4.9932 3.7402l-1.528-1.726c2.143-1.2121 3.8151-2.4762 5.0192-3.7932-1.599-2.5201-2.6441-5.2913-3.1352-8.3124h-.54c.07 5.5593-.892 10.1604-2.8851 13.8056l-2.002-1.396c1.73-3.0302 2.594-7.2944 2.594-12.7916v-7.8243c4.2872-.167 8.1904-.776 11.7125-1.8301zm-1.8972 10.0384h-4.6102c.35 2.3001 1.115 4.4132 2.2921 6.3353 1.184-1.861 1.9571-3.9732 2.3181-6.3353zm-10.6574-6.4812c-.123 1.984-.51 4.0441-1.159 6.1772l-2.1461-.618c.308-.887.584-1.9551.83-3.2002h-3.3473c-.623 1.5181-1.269 2.8482-1.937 3.9892l-1.646-1.7909c1.186-2.0983 2.138-4.7955 2.8581-8.0876l2.2401.646a63.5656 63.5656 0 0 1 -.764 2.8842zm-.961 15.7546c-1.6161 1.616-3.1532 2.9021-4.6102 3.8602l-1.3842-1.9101c.255-.22.382-.554.382-1.002v-11.8946h2.3451v10.8404c.623-.483 1.396-1.185 2.3181-2.107z"/></svg>

<svg xmlns="http://www.w3.org/2000/svg" viewBox="0 0 24 24"><path d="m21.96.066 1.369 2.081q-4.9 1.358-10.787 1.83v3.807h10.194q-.672 6.64-3.504 10.552Q21.09 20.55 24 22.274l-1.7 1.66a25 25 0 0 1-4.582-3.74 21 21 0 0 1-4.993 3.74l-1.528-1.726q3.214-1.818 5.019-3.793-2.4-3.78-3.135-8.312h-.54q.105 8.339-2.885 13.806l-2.002-1.396q2.594-4.546 2.594-12.792V1.897q6.43-.25 11.712-1.83zm-1.897 10.038h-4.61q.526 3.451 2.292 6.335 1.776-2.791 2.318-6.335M9.405 3.623Q9.22 6.6 8.246 9.8L6.1 9.182q.461-1.332.83-3.2H3.583Q2.648 8.259 1.646 9.97L0 8.18Q1.779 5.031 2.858.092l2.24.646a64 64 0 0 1-.764 2.885zm-.96 15.754q-2.426 2.423-4.61 3.86l-1.385-1.91q.382-.33.382-1.002V8.431h2.345v10.84q.935-.724 2.318-2.107z"/></svg>
